images/icon/icon_trash.svg

<?xml version="1.0" encoding="utf-8"?>
<!-- Generator: Adobe Illustrator 16.0.0, SVG Export Plug-In . SVG Version: 6.00 Build 0)  -->
<!DOCTYPE svg PUBLIC "-//W3C//DTD SVG 1.1//EN" "http://www.w3.org/Graphics/SVG/1.1/DTD/svg11.dtd">
<svg version="1.1" id="圖層_1" xmlns="http://www.w3.org/2000/svg" xmlns:xlink="http://www.w3.org/1999/xlink" x="0px" y="0px"
	 width="28.35px" height="28.35px" viewBox="0 0 28.35 28.35" enable-background="new 0 0 28.35 28.35" xml:space="preserve">
<g>
	<path d="M21.134,12.436H7.215H3.736v3.479v8.701c0,1.911,1.565,3.479,3.479,3.479h13.919c1.912,0,3.48-1.567,3.48-3.479v-8.701
		v-3.479H21.134z M10.694,23.745c0,0.479-0.391,0.871-0.871,0.871H8.084c-0.479,0-0.87-0.391-0.87-0.871v-6.961
		c0-0.478,0.391-0.87,0.87-0.87h1.738c0.479,0,0.871,0.392,0.871,0.87V23.745z M15.915,23.745c0,0.479-0.392,0.871-0.872,0.871
		h-1.738c-0.479,0-0.871-0.391-0.871-0.871v-6.961c0-0.478,0.39-0.87,0.871-0.87h1.738c0.479,0,0.872,0.392,0.872,0.87V23.745z
		 M21.134,23.745c0,0.479-0.39,0.871-0.869,0.871h-1.74c-0.479,0-0.871-0.391-0.871-0.871v-6.961c0-0.478,0.391-0.87,0.871-0.87
		h1.74c0.479,0,0.869,0.392,0.869,0.87V23.745z"/>
	<path d="M26.34,7.215c-0.075,0-1.599-1.74-3.463-1.74h-3.481c0-2.1-1.39-5.22-5.221-5.22c-3.829,0-5.219,3.12-5.219,5.22h-3.48
		c-1.863,0-3.389,1.74-3.465,1.74H1.995v3.481h3.479h17.401h3.479V7.215H26.34z M11.675,5.475c0.026-0.797,0.599-2.5,2.5-2.5
		c1.85,0,2.374,1.716,2.394,2.5H11.675z"/>
</g>
</svg>

<svg id="圖層_1" data-name="圖層 1" xmlns="http://www.w3.org/2000/svg" viewBox="0 0 24.36 27.84"><defs><style>.cls-1{fill:#fff;}</style></defs><path class="cls-1" d="M21.13,12.44H3.74V24.62A3.49,3.49,0,0,0,7.22,28.1H21.13a3.49,3.49,0,0,0,3.48-3.48V12.44ZM10.69,23.75a.88.88,0,0,1-.87.87H8.08a.87.87,0,0,1-.87-.87v-7a.88.88,0,0,1,.87-.87H9.82a.88.88,0,0,1,.87.87v7Zm5.22,0a.88.88,0,0,1-.87.87H13.31a.88.88,0,0,1-.88-.87v-7a.88.88,0,0,1,.88-.87H15a.88.88,0,0,1,.87.87Zm5.22,0a.88.88,0,0,1-.86.87H18.53a.88.88,0,0,1-.88-.87v-7a.89.89,0,0,1,.88-.87h1.74a.88.88,0,0,1,.86.87Z" transform="translate(-2 -0.26)"/><path class="cls-1" d="M26.34,7.22c-.08,0-1.6-1.74-3.46-1.74H19.4A5.07,5.07,0,0,0,14.17.26,5.07,5.07,0,0,0,9,5.48H5.48C3.61,5.48,2.09,7.22,2,7.22H2V10.7H26.35V7.22ZM11.68,5.47A2.51,2.51,0,0,1,14.18,3a2.46,2.46,0,0,1,2.39,2.5Z" transform="translate(-2 -0.26)"/></svg>
